X: 553
T: Faded Love
C:Bobby Hicks version
B: jims roots
M:4/4
L:1/8
Q: 1/4=100
K:D
V:1 
%From the CD &#8211; "Fiddle Patch"  Transcribed by Mike Perry  <a href="mailto:dmperry@eclipse.net">dmperry@eclipse.net</a>
%270
%"Arranged by""Mike Perry"
x [D2D2] [F2D2] | "D"A4 A3B | A2 F2 "D7"(3EFE D2 | "G"d4 d3e |d4 c2 B2 |
"D"A4 A3B | A2 F2 (3EFE D2 | "A7"E4 E3F | E3D DF DF | "D"A4 A3B |
A2 F2 "D7"(3EFE D2 | "G"d4 d3f | ed zB dc AB | "D"A4 c2 d2 | "A7"e4 B2 c2 |
"D"d4 d3e | d4 c2 f2 | "D"a4 a3b | a2 ef "D7"(3afe d2 | "G"B3A B2 c2 | d3c d2 ef |
"D"a4 a3b | a2 ef (3afe d2 | "A7"[e2e2] [e2e2] (3efe =cB | [e2A2] [e2A2] A/B/=c/^c/ ef | "D"a4 a3b |
a2 ef "D7"(3afe d2 | "G"B3A B2 c2 | d3d c2 B2 | "D"A4 c2 d2 | "A7"e4 B2 c2 | "D"d4 d3e |d8 |
% abcbook-tune_id 6298c25dd1f0a9b25a79453e


% abcbook-boost 0
% abcbook-tablature 
% abcbook-transpose 
% abcbook-lastupdated 1654178397892
% abcbook-soundfonts 
% abcbook-repeats 1


